X:152
T: Luo yu da
N: C0254
O: China, Guangdong, Guangzhou
S: II, 423]
N: Vereinzelt Verzierungen.
R: Xiaodiao, Erge. Shenghuo xiaochang]
M: 2/4
L: 1/16
K: A
G4B4 | G8 | B4B4 | e6c2 | B8
A4c4 | B4E4 | A4B2A2 | F4A4
A4B4 | c4B4 | A4B4 | E8
e4F4 | c2G2z4 | e4cecB | B8
c4B2A2 | E4B4 | A8 | c2B4A2 | E8
G4F4 | c2B2z4 | G4G4 | e4z4
c4B3A | E4F4 | A8 | B8 | E8

